packages/kaspersky-hexa-ui-icons/src/iconsSVGs/24/Table.svg

<svg xmlns="http://www.w3.org/2000/svg" width="24" height="24" fill="none" viewBox="0 0 24 24"><path fill="#000" fill-rule="evenodd" d="M6 22c-2.2091 0-4-1.7909-4-4V6c0-2.2091 1.7909-4 4-4h12c2.2091 0 4 1.7909 4 4v12c0 2.2091-1.7909 4-4 4zM6 4h12c1.1046 0 2 .8954 2 2v2H4V6c0-1.1046.8954-2 2-2M4 18v-8h4v10H6c-1.1046 0-2-.8954-2-2m6-8v10h4V10zm6 0v10h2c1.1046 0 2-.8954 2-2v-8z"/></svg>

<svg width="24" height="24" viewBox="0 0 24 24" fill="none" xmlns="http://www.w3.org/2000/svg">
<path fill-rule="evenodd" clip-rule="evenodd" d="M6 22C3.79086 22 2 20.2091 2 18V6C2 3.79086 3.79086 2 6 2H18C20.2091 2 22 3.79086 22 6V18C22 20.2091 20.2091 22 18 22H6ZM6 4H18C19.1046 4 20 4.89543 20 6V8H4V6C4 4.89543 4.89543 4 6 4ZM4 18V10H8V20H6C4.89543 20 4 19.1046 4 18ZM10 10V20H14V10H10ZM16 10V20H18C19.1046 20 20 19.1046 20 18V10H16Z" fill="black"/>
</svg>
